Yaru++/status/24/megasynching.svg

<svg height="24" width="24" xmlns="http://www.w3.org/2000/svg">
  <g fill-rule="evenodd">
    <path d="m11.683594.49609375a11 11 0 0 0 -10.683594 11.00000025 11 11 0 0 0 12.257812 10.923828 6.5 6.5 0 0 1 -2.257812-4.919922 6.5 6.5 0 0 1 .962891-3.390625.64569997.64569997 0 0 1 -.427735-.193359l-2.9277341-2.970704a.0407.0407 0 0 0 -.0136719-.007812.0407.0407 0 0 0 -.0351562.001953.0407.0407 0 0 0 -.0214844.035156v4.316407a.32999999.32999999 0 0 1 -.3300782.330078h-1.3769531a.32999999.32999999 0 0 1 -.3300781-.330078v-7.5898441a.32999999.32999999 0 0 1 .3300781-.3300781h.9472657a.64789997.64789997 0 0 1 .4609374.1933593l3.6523438 3.6894529a.16169999.16169999 0 0 0 .230469 0l3.644531-3.691406a.64789997.64789997 0 0 1 .460937-.1933594h.94336a.32999999.32999999 0 0 1 .330078.3300782v3.3007812a6.5 6.5 0 0 1 5.263672 2.701172 11 11 0 0 0 .236328-2.205078 11 11 0 0 0 -11.316406-11.00000025zm3.726562 10.43945325a.0407.0407 0 0 0 -.007812.001953.0407.0407 0 0 0 -.013672.009766l-.681641.689453a6.5 6.5 0 0 1 .751953-.298828v-.361329a.0407.0407 0 0 0 -.011718-.029296.0407.0407 0 0 0 -.009766-.007813.0407.0407 0 0 0 -.027344-.003906z" fill="#fff" fill-opacity=".99"/>
    <path d="m17.537054 12.100224a5.5 5.5 0 1 0 5.5 5.5 5.5 5.5 0 0 0 -5.5-5.5zm0 9a3.454 3.454 0 0 1 -2.466-1.033l-1.034 1.033v-2.917h2.917l-1.061 1.061a2.3 2.3 0 0 0 1.644.689 2.331 2.331 0 0 0 2.277-1.833h1.173a3.489 3.489 0 0 1 -3.45 3zm3.5-4.083h-2.917l1.06-1.061a2.3 2.3 0 0 0 -1.643-.689 2.332 2.332 0 0 0 -2.277 1.833h-1.173a3.49 3.49 0 0 1 3.45-3 3.446 3.446 0 0 1 2.466 1.034l1.034-1.034z" fill="#fffefd"/>
  </g>
</svg>

<svg xmlns="http://www.w3.org/2000/svg" width="24" height="24" version="1.1">
 <defs>
  <style id="style2" type="text/css">
   .ColorScheme-Text { color:#5c616c; } .ColorScheme-Highlight { color:#5294e2; } .ColorScheme-ButtonBackground { color:#d3dae3; }
  </style>
 </defs>
 <path style="fill:#ffffff;fill-opacity:0.99000001;fill-rule:evenodd" id="Shape_2_copy" d="M 11.683594 0.49609375 A 11 11 0 0 0 1 11.496094 A 11 11 0 0 0 13.257812 22.419922 A 6.5 6.5 0 0 1 11 17.5 A 6.5 6.5 0 0 1 11.962891 14.109375 A 0.64569997 0.64569997 0 0 1 11.535156 13.916016 L 8.6074219 10.945312 A 0.0407 0.0407 0 0 0 8.59375 10.9375 A 0.0407 0.0407 0 0 0 8.5585938 10.939453 A 0.0407 0.0407 0 0 0 8.5371094 10.974609 L 8.5371094 15.291016 A 0.32999999 0.32999999 0 0 1 8.2070312 15.621094 L 6.8300781 15.621094 A 0.32999999 0.32999999 0 0 1 6.5 15.291016 L 6.5 7.7011719 A 0.32999999 0.32999999 0 0 1 6.8300781 7.3710938 L 7.7773438 7.3710938 A 0.64789997 0.64789997 0 0 1 8.2382812 7.5644531 L 11.890625 11.253906 A 0.16169999 0.16169999 0 0 0 12.121094 11.253906 L 15.765625 7.5625 A 0.64789997 0.64789997 0 0 1 16.226562 7.3691406 L 17.169922 7.3691406 A 0.32999999 0.32999999 0 0 1 17.5 7.6992188 L 17.5 11 A 6.5 6.5 0 0 1 22.763672 13.701172 A 11 11 0 0 0 23 11.496094 A 11 11 0 0 0 11.683594 0.49609375 z M 15.410156 10.935547 A 0.0407 0.0407 0 0 0 15.402344 10.9375 A 0.0407 0.0407 0 0 0 15.388672 10.947266 L 14.707031 11.636719 A 6.5 6.5 0 0 1 15.458984 11.337891 L 15.458984 10.976562 A 0.0407 0.0407 0 0 0 15.447266 10.947266 A 0.0407 0.0407 0 0 0 15.4375 10.939453 A 0.0407 0.0407 0 0 0 15.410156 10.935547 z"/>
 <path style="fill:#fffefd;fill-rule:evenodd" d="m 17.537054,12.100224 a 5.5,5.5 0 1 0 5.5,5.5 5.5,5.5 0 0 0 -5.5,-5.5 z m 0,9 a 3.454,3.454 0 0 1 -2.466,-1.033 l -1.034,1.033 v -2.917 h 2.917 l -1.061,1.061 a 2.3,2.3 0 0 0 1.644,0.689 2.331,2.331 0 0 0 2.277,-1.833 h 1.173 a 3.489,3.489 0 0 1 -3.45,3 z m 3.5,-4.083 h -2.917 l 1.06,-1.061 a 2.3,2.3 0 0 0 -1.643,-0.689 2.332,2.332 0 0 0 -2.277,1.833 h -1.173 a 3.49,3.49 0 0 1 3.45,-3 3.446,3.446 0 0 1 2.466,1.034 l 1.034,-1.034 z"/>
</svg>
